X: 19459
T: Jackson's Faggots
R: reel
M: 4/4
K: Dmajor
|:(3FGD|FAdg fdAG|FAdg fdAG|FAdf g2 fg|(3efd (3cdB (3ABG (3FGD|
FAdg fdAG|FAdg fdAG|FAdg fbag|(3efd (3dec d2:|
|:(3fge|afdf g2 fg|(3efd (3cdB (3ABG (3FGD|FAdf g2 fg|(3efd (3cdB A2 (3fge|
afdf g2 fg|(3efd (3cdB (3ABG (3FGD|FAdf gbag|(3efd (3dec d2:|

